X:1
T:Title
%%score { ( 1 3 5 ) | ( 2 4 ) }
L:1/8
M:4/4
K:Eb
V:1 treble nm="Grand Piano"
V:3 treble 
V:5 treble 
V:2 bass 
V:4 bass 
V:1
 z4 z2[Q:1/4=108] G2 | B2 G2 [A,CF]2 [G,CE]2 | [F,B,E]3 [F,B,D] [F,B,D]2[K:treble] [B,E]2 | %3
 E2- [B,EG]2 A2- [B,FA]2 |[M:3/4] [B,EG]6 |[M:1/4] [B,EB]2 |[M:4/4] z4 z2 c2 | [FB]3 F F2 G2 | %8
 A2 [B,DF]2 [B,EG]2 [CFA]2 |[M:3/4] [B,DF]6 |[M:1/4] [B,DF]2 | %11
[M:4/4] [B,FB]2 [B,DF]2 [Fd]2 [DGB]2 | [Ge]4 [_Gd]4 | [Gc]2 G2 =A2 c2 |[M:3/4] [B,DB]6 | %15
[M:1/4] [B,EG]2 |[M:4/4] [A,EA]2 B2 c2 d2 | e2 G2 [B,EB]2 [CEA]2 | [B,EG]4 [A,DF]4 | %19
[M:7/4] [G,E]6 z2 z2 z4 |[M:4/4] [CEA]8 | [B,EG]8 |] %22
V:2
 z4 z2 [E,B,E]2 | [E,G,E]2 [E,B,E]2 A,,2 A,,2 | B,,3 B,, A,,2 G,,2 | %3
 A,,2 z D [C,E,]2 z[K:treble] B |[M:3/4][K:bass] E,6 |[M:1/4] G,,2 | %6
[M:4/4] [A,,A,]2 [C,A,]2 [F,A,]2 [E,C]2 | [D,F,]3 [D,B,] [D,B,]2 [E,B,E]2 | %8
 [F,A,C]2 B,,2 E,2 A,,2 |[M:3/4] B,,6 |[M:1/4] B,,2 |[M:4/4] D,2 F,2 B,2 G,2 | [C,C]4 [D,=A,]4 | %13
 [E,G,]2 [E,CE]2 [F,CE]2 [F,=A,E]2 |[M:3/4] B,,6 |[M:1/4] E,_D, | %16
[M:4/4] C,2 [E,G,E]2 [A,E]2 [F,A,F]2 | [G,B,E]2 [E,B,E]2 G,,2 A,,2 | B,,4 B,,4 | %19
[M:7/4] E,6 z2 z2 z4 |[M:4/4] A,,8 | E,8 |] %22
V:3
 x8 | x8 | x6[K:treble] x2 | [CF]2 z2 E2 z2 |[M:3/4] x6 |[M:1/4] x2 |[M:4/4] [Ec]2 [Ee]2 d2 z G | %7
 x8 | x8 |[M:3/4] x6 |[M:1/4] x2 |[M:4/4] x8 | x8 | x8 |[M:3/4] x6 |[M:1/4] x2 |[M:4/4] x8 | x8 | %18
 x8 |[M:7/4] x14 |[M:4/4] x8 | x8 |] %22
V:4
 x8 | x8 | x8 | z2 B,,2 z2 D,2[K:treble] |[M:3/4][K:bass] x6 |[M:1/4] x2 |[M:4/4] x8 | x8 | x8 | %9
[M:3/4] x6 |[M:1/4] x2 |[M:4/4] x8 | x8 | x8 |[M:3/4] x6 |[M:1/4] x2 |[M:4/4] x8 | x8 | x8 | %19
[M:7/4] x14 |[M:4/4] x8 | x8 |] %22
V:5
 x8 | x8 | x6[K:treble] x2 | x8 |[M:3/4] x6 |[M:1/4] x2 |[M:4/4] z4 A4 | x8 | x8 |[M:3/4] x6 | %10
[M:1/4] x2 |[M:4/4] x8 | x8 | x8 |[M:3/4] x6 |[M:1/4] x2 |[M:4/4] x8 | x8 | x8 |[M:7/4] x14 | %20
[M:4/4] x8 | x8 |] %22

